X:1
T:At the Savior’s Right Hand
T:At the Savior’s Right Hand
T:George Blackburn Holsinger
T:Eden Reeder Latta, 1894
T:Public Domain Courtesy of the Cyber Hymnal™
T:Public Domain Courtesy of the Cyber Hymnal™
C:George Blackburn Holsinger
Z:Public Domain
Z:Courtesy of the Cyber Hymnal™
%%score ( 1 2 ) ( 3 4 )
L:1/8
Q:1/4=83
M:6/8
K:F
V:1 treble 
V:2 treble 
V:3 bass 
V:4 bass 
V:1
 F/[FG]/ | [FA]>[F^G][FA] F[F=G][FA] | [FB]>[FA][FB] [EG]2 [FA]/[GB]/ | [Ac]>[Bd][Ac] [Ac][FA]F | %4
w: 1.~In the|day of all days, when the|world shall be judged, And the|chaff from the wheat shall be|
w: 2.~But the|wick- ed who will not re-|pent and be- lieve, And will|ne- ver live up to the|
w: 3.~We are|jour- ney- ing on to e-|ter- ni- ty, now, On the|banks of death’s Jor- dan we|
w: 4.~If our|shep- herd He is, and we|fol- low His call, He will|lead us safe home to that|
 F[EG][FA] [EG]2 F/[FG]/ | [FA]>[F^G][FA] F[F=G][FA] | [FB]>[FA][FB] [EG]2 [FA]/[GB]/ | %7
w: tho- rough- ly fanned, Then the|right- eous shall shine as the|stars in the sky, And their|
w: Mas- ter’s com- mand, Shall be|placed on the left, as un-|wor- thy to be With the|
w: some- time shall stand! Shall we|fear to pass o- ver the|dark roll- ing flood, Lest our|
w: beau- ti- ful land; And, with|crowns on our brows, and with|branch- es of palm, We shall|
 [Ac]>[Bd][Ac] [Ac][FA]F | [FA][CF][CG] [CF]2 ||"^Refrain" [Ac] | [Af]4 [ce][Bd] | %11
w: plac- es shall be at the|Sav- ior’s right hand.|||
w: child- ren of God at the|Sav- ior’s right hand.|Let|me find a|
w: por- tion not be at the|Sav- ior’s right hand?|||
w: ev- er a- bide at the|Sav- ior’s right hand.|||
 [Ac]3- [Ac]2 [FA] | [Ac]4 [GB][FA] | [EG]3- [EG]2 [FA]/[Ac]/ | [Af]4 [ce][Bd] | %15
w: ||||
w: place * with|that hap- py|band, * Who shall|ev- er a-|
w: ||||
w: ||||
 [Ac]3- [Ac]2 [FA] | [Ac]>[FA]F [FA][CF][CG] | F3- [CF]2 |] %18
w: |||
w: bide, * A-|bide at the Sav- ior’s right|hand. *|
w: |||
w: |||
V:2
 F/ x/ | x3 F x2 | x6 | x5 F | F x3 F/ x3/2 | x3 F x2 | x6 | x5 F | x5 || x | x6 | x6 | x6 | x6 | %14
 x6 | x6 | x2 F x3 | C2 D x2 |] %18
V:3
 [F,A,]/[F,B,]/ | [F,C]>[F,=B,][F,C] [F,A,][F,_B,][F,C] | %2
w: ~ ~|~ ~ ~ ~ ~ ~|
 [B,,D]>[B,,D][B,,D] [B,,C]2 [F,C]/[F,C]/ | [F,F]>[F,F][F,F] [F,F][F,C][F,A,] | %4
w: ~ ~ ~ ~ ~ ~|~ ~ ~ ~ ~ ~|
 [A,C][G,C][F,C] [C,C]2 [F,A,]/[F,B,]/ | [F,C]>[F,=B,][F,C] [F,A,][F,_B,][F,C] | %6
w: ~ ~ ~ ~ ~ ~|~ ~ ~ ~ ~ ~|
 [B,,D]>[B,,D][B,,D] [C,C]2 [F,C]/[F,C]/ | [F,F]>[F,F][F,F] [F,F][F,C][F,A,] | %8
w: ~ ~ ~ ~ ~ ~|~ ~ ~ ~ ~ ~|
 [C,C][C,A,][C,B,] [F,A,]2 || [F,C] | [F,C]2 [F,C]/[F,C]/ [F,C][F,D][F,E] | %11
w: ~ ~ ~ ~|Let|me find a place with that|
 [F,F]2 [F,F] [F,F]2 [F,C] | [F,C]2 [F,C]/[F,C]/ [F,C][F,C][F,C] | %13
w: hap- py band, Let|me find a place with that|
 [C,C]2 [C,C] [C,C]2 [F,C]/[F,C]/ | [F,C]>[F,C][F,C] [F,C][F,D][F,E] | %15
w: hap- py band, Who shall|ev- er a- bide at the|
 [F,F]>[F,F][F,F] [F,F]2 [D,C] | [D,F]>[D,C][F,A,] [C,C][C,A,][C,B,] | (A,2 B, [F,A,]2) |] %18
w: Sav- ior’s right hand. *|||
V:4
 x | x6 | x6 | x6 | x6 | x6 | x6 | x6 | x5 || x | x6 | x6 | x6 | x6 | x6 | x6 | x6 | F,3- x2 |] %18

